src/basic/600/u25A1-square.svg

<svg width="20" height="24" viewBox="0 0 20 24" fill="none" xmlns="http://www.w3.org/2000/svg">
<path fill-rule="evenodd" clip-rule="evenodd" d="M0.99589,3.0195h0.5h17.00621h0.5v0.5v16.9707v0.5h-0.5h-17.00621h-0.5v-0.5v-16.9707zM1.99589,4.0195v15.9707h16.00621v-15.9707z" fill="black"/>
</svg>

<svg width="20" height="24" viewBox="0 0 20 24" fill="none" xmlns="http://www.w3.org/2000/svg">
<path fill-rule="evenodd" clip-rule="evenodd" d="M0.995893 3.0195H1.49589H18.5021H19.0021V3.5195V20.4902V20.9902H18.5021H1.49589H0.995893V20.4902V3.5195V3.0195ZM1.99589 4.0195V19.9902H18.0021V4.0195H1.99589Z" fill="black"/>
</svg>
